public/style/workarea/images/icons/exe-dots-menu-vertical-icon-green.svg

<svg width="25" height="25" viewBox="0 0 25 25" fill="none" xmlns="http://www.w3.org/2000/svg">
<path d="M12.9854 20.5687C13.5376 20.5687 13.9854 20.121 13.9854 19.5687C13.9854 19.0164 13.5376 18.5687 12.9854 18.5687C12.4331 18.5687 11.9854 19.0164 11.9854 19.5687C11.9854 20.121 12.4331 20.5687 12.9854 20.5687Z" stroke="#0BA1A1" stroke-width="2" stroke-linecap="round" stroke-linejoin="round"/>
<path d="M12.9854 13.5687C13.5376 13.5687 13.9854 13.121 13.9854 12.5687C13.9854 12.0164 13.5376 11.5687 12.9854 11.5687C12.4331 11.5687 11.9854 12.0164 11.9854 12.5687C11.9854 13.121 12.4331 13.5687 12.9854 13.5687Z" stroke="#0BA1A1" stroke-width="2" stroke-linecap="round" stroke-linejoin="round"/>
<path d="M12.9854 6.56873C13.5376 6.56873 13.9854 6.12101 13.9854 5.56873C13.9854 5.01644 13.5376 4.56873 12.9854 4.56873C12.4331 4.56873 11.9854 5.01644 11.9854 5.56873C11.9854 6.12101 12.4331 6.56873 12.9854 6.56873Z" stroke="#0BA1A1" stroke-width="2" stroke-linecap="round" stroke-linejoin="round"/>
</svg>

<svg fill="none" height="25" viewBox="0 0 25 25" width="25" xmlns="http://www.w3.org/2000/svg"><g stroke="#0ba1a1" stroke-linecap="round" stroke-linejoin="round" stroke-width="2"><path d="m12.9854 20.5687c.5522 0 1-.4477 1-1s-.4478-1-1-1c-.5523 0-1 .4477-1 1s.4477 1 1 1z"/><path d="m12.9854 13.5687c.5522 0 1-.4477 1-1s-.4478-1-1-1c-.5523 0-1 .4477-1 1s.4477 1 1 1z"/><path d="m12.9854 6.56873c.5522 0 1-.44772 1-1 0-.55229-.4478-1-1-1-.5523 0-1 .44771-1 1 0 .55228.4477 1 1 1z"/></g></svg>
